X:20
T: Haidi zhenzhu rongyi wen
N: C1520
O: China, Guangdong, Zhongshan
S: II, 418]
R: Xiaodiao, Dazengge. Nann qing]
M: 2/4
L: 1/16
K: A
B2c2B2FA | B2BcE4 | A3cB4G3F | E2C2E4 | A3cB2FA
E4B2F2 | A8 | FEC4z2 | B2c2B2FA
B2B2G2F2 | E4A2B2 | E2E2B4 | G3FE2C2 | E8 | C8

